X:85
T: A füzesi bíro lánya talpig fekete gyászba
Q: "Quasi guisto"
M:4/4
K:G
L:1/8
GGGG ABcd | edcB | A G3 G2 z2 |
dddd efga | bagf | e d3 d2 z2 |
eeee agag | d2 g2 abag | ddee d2 z2|
GGGG ABcd | edcB | A G3 G2 z2 |

